assets/logo-email.svg

<svg xmlns="http://www.w3.org/2000/svg" viewBox="0 0 640 640"><!--!Font Awesome Free 7.1.0 by @fontawesome - https://fontawesome.com License - https://fontawesome.com/license/free Copyright 2025 Fonticons, Inc.--><path d="M125.4 128C91.5 128 64 155.5 64 189.4c0 .9 0 1.7.1 2.6H64v256c0 35.3 28.7 64 64 64h384c35.3 0 64-28.7 64-64V192h-.1c0-.9.1-1.7.1-2.6 0-33.9-27.5-61.4-61.4-61.4zM528 256.3V448c0 8.8-7.2 16-16 16H128c-8.8 0-16-7.2-16-16V256.3l154.8 117.4c31.4 23.9 74.9 23.9 106.4 0zm-416-66.9c0-7.4 6-13.4 13.4-13.4h389.2c7.4 0 13.4 6 13.4 13.4 0 4.2-2 8.2-5.3 10.7L344.2 335.5c-14.3 10.8-34.1 10.8-48.4 0L117.3 200.1c-3.3-2.5-5.3-6.5-5.3-10.7"/></svg>

<svg xmlns="http://www.w3.org/2000/svg" viewBox="0 0 640 640"><!--!Font Awesome Free 7.1.0 by @fontawesome - https://fontawesome.com License - https://fontawesome.com/license/free Copyright 2025 Fonticons, Inc.--><path d="M125.4 128C91.5 128 64 155.5 64 189.4C64 190.3 64 191.1 64.1 192L64 192L64 448C64 483.3 92.7 512 128 512L512 512C547.3 512 576 483.3 576 448L576 192L575.9 192C575.9 191.1 576 190.3 576 189.4C576 155.5 548.5 128 514.6 128L125.4 128zM528 256.3L528 448C528 456.8 520.8 464 512 464L128 464C119.2 464 112 456.8 112 448L112 256.3L266.8 373.7C298.2 397.6 341.7 397.6 373.2 373.7L528 256.3zM112 189.4C112 182 118 176 125.4 176L514.6 176C522 176 528 182 528 189.4C528 193.6 526 197.6 522.7 200.1L344.2 335.5C329.9 346.3 310.1 346.3 295.8 335.5L117.3 200.1C114 197.6 112 193.6 112 189.4z"/></svg>
